packages/brickdoc-design-icons/assets/edit/rte-h3.svg

<svg width="1em" height="1em" viewBox="0 0 24 24" fill="none" xmlns="http://www.w3.org/2000/svg">
<path fill-rule="evenodd" clip-rule="evenodd" d="M20.5921 14.0873C20.4016 13.9118 20.0856 13.8056 19.6046 13.8056C19.1245 13.8056 18.7887 13.9307 18.5662 14.1393C18.3405 14.3508 18.1784 14.6861 18.1341 15.1851L18.1085 15.4722H16.1697L16.198 15.13C16.2775 14.1672 16.6269 13.3912 17.2771 12.8236C17.8888 12.2568 18.6713 12 19.5923 12C20.5304 12 21.3083 12.2273 21.9204 12.7252L21.9259 12.7297C22.5207 13.2365 22.8271 13.9345 22.8271 14.7904C22.8271 15.3386 22.6888 15.8221 22.3978 16.2176C22.2412 16.4304 22.0458 16.6104 21.8164 16.7591C22.0774 16.91 22.2999 17.0939 22.4801 17.3109C22.8335 17.7191 23 18.239 23 18.8308C23 19.7464 22.6841 20.5136 22.0623 21.107L22.0551 21.1139C21.3972 21.7026 20.5432 22 19.5429 22C18.5877 22 17.783 21.745 17.1713 21.219C16.4763 20.622 16.1037 19.7645 16.0249 18.6903L16 18.351H17.9869L17.9992 18.6535C18.0214 19.1982 18.1838 19.5731 18.4733 19.8296L18.4806 19.8361C18.7342 20.0755 19.0742 20.2071 19.5305 20.2071C20.0292 20.2071 20.4063 20.0547 20.6868 19.7903C20.9252 19.5448 21.0492 19.2591 21.0492 18.8939C21.0492 18.4315 20.9126 18.1464 20.6881 17.9699L20.6786 17.9624C20.4602 17.7763 20.0993 17.6566 19.5552 17.6566H18.6045V15.9899H19.5429C20.0451 15.9899 20.3687 15.8725 20.5635 15.7005C20.7552 15.5311 20.8763 15.2717 20.8763 14.8914C20.8763 14.5072 20.7646 14.2562 20.5921 14.0873Z" fill="#3E3E3E"/>
<path d="M1 2V22H3.5777V13.0364H12.4223V22H15V2H12.4223V10.4314H3.5777V2H1Z" fill="#3E3E3E"/>
</svg>

<svg  viewBox="0 0 24 24" width="1em" height="1em" fill="none" xmlns="http://www.w3.org/2000/svg"><path fill-rule="evenodd" clip-rule="evenodd" d="M20.592 14.087c-.19-.175-.506-.281-.987-.281-.48 0-.816.125-1.039.333-.226.212-.388.547-.432 1.046l-.026.287H16.17l.028-.342c.08-.963.429-1.739 1.08-2.306.61-.567 1.393-.824 2.314-.824.938 0 1.716.227 2.328.725l.006.005c.595.506.901 1.204.901 2.06 0 .549-.138 1.032-.43 1.428a2.198 2.198 0 0 1-.58.541c.26.151.483.335.663.552.354.408.52.928.52 1.52 0 .915-.316 1.683-.938 2.276l-.007.007c-.658.589-1.512.886-2.512.886-.955 0-1.76-.255-2.372-.781-.695-.597-1.067-1.454-1.146-2.529L16 18.351h1.987l.012.303c.022.544.185.92.474 1.176l.008.006c.253.24.593.371 1.05.371.498 0 .875-.152 1.156-.417.238-.245.362-.53.362-.896 0-.462-.136-.748-.36-.924l-.01-.008c-.219-.186-.58-.305-1.124-.305h-.95V15.99h.938c.502 0 .826-.117 1.02-.29.192-.169.313-.428.313-.809 0-.384-.111-.635-.284-.804Z" fill="#34313c"/><path d="M1 2v20h2.578v-8.964h8.844V22H15V2h-2.578v8.431H3.578V2H1Z" fill="#34313c"/></svg>
